**kern	**kern	**dynam
*part1	*part1	*part1
*staff2	*staff1	*
*I"Piano	*	*
*clefF4	*clefG2	*
*k[f#]	*k[f#]	*
*M6/8	*M6/8	*
=1	=1	=1
8r	8dd	p
=	=	=
8GGL 8G	(8bb^L	.
8r	8gg	.
8GJ 8A#X 8c#X	8eeJ)	.
.	8qee/	.
8GL 8B 8d	(8ddL	.
8r	8cc#X	.
8GJ 8B 8d	8ddJ)	.
=	=	=
8GGL 8G	(8bb^L	.
8r	8gg	.
8GJ 8A#X 8c#X	8eeJ)	.
8GL 8B 8d	4dd	.
8r	.	.
8GJ 8B 8d	8bb	.
=	=	=
8CL	(8bb^L	.
8r	8aa	.
8EJ 8A 8c	8eeJ)	.
8DL	8ff#'L	.
8r	8bb'	.
(((8DJ 8F# 8c	(8aaJ	.
=	=	=
8G))) 8B	8gg)	.
8r	8r	.
8GG	8B 8d 8g	.
4GG	4B 4d 4g	.
=||	=||	=||
8r	8r	.
=	=	=
4.GG 4.G	8r	p
.	(8B'L 8g	.
.	8A#X'J) 8e	.
4GG 4G	(8B'L 8d	.
.	8r	.
8r	8B'J) 8d	.
=	=	=
*-	*-	*-
!!!system-decoration: {(s1,s2)}
